X:0486
T:La Jupon Rouge or the Scarlet Petticoat.
M:6/8
L:1/8
Q:3/8=120
P:ABACA
N:Aird uses da capos
I: :: :: "DC & then go on" :: DC
Z:Jack Campin * www.campin.me.uk * 2009
K:G
P:A
d    |d2g BAG |A2A  A2B|c2B A>GA|G3   DGB |\
      d2g BAG |A2A  A2B|c2B AGA |G3   G2 :|
P:B
d    |dgb bag |afd  d2d|dab c'ba|d'bg g2   \
d    |e2e c'af|gd'b g2d|e2d c'2b|b3   a2 :|
P:C
b/c'/|d'bg gab|c'af fga|gab abg |f2d  d2   \
b/c'/|d'bg gab|c'af fga|gab abg |d'3 Hd'2:|

